src/main/resources/icons/cwmAccess@20x20.svg

<!-- Copyright 2000-2023 JetBrains s.r.o. and contributors. Use of this source code is governed by the Apache 2.0 license. -->
<svg width="20" height="20" viewBox="0 0 20 20" fill="none" xmlns="http://www.w3.org/2000/svg">
<path fill-rule="evenodd" clip-rule="evenodd" d="M13.9998 5C13.9998 7.20914 12.209 9 9.99982 9C7.79068 9 5.99982 7.20914 5.99982 5C5.99982 2.79086 7.79068 1 9.99982 1C12.209 1 13.9998 2.79086 13.9998 5ZM12.4998 5C12.4998 6.38071 11.3805 7.5 9.99982 7.5C8.61911 7.5 7.49982 6.38071 7.49982 5C7.49982 3.61929 8.61911 2.5 9.99982 2.5C11.3805 2.5 12.4998 3.61929 12.4998 5Z" fill="#6C707E"/>
<path d="M9.99982 10C11.4176 10 12.5674 10.2859 13.4998 10.7496V12.4962C12.6918 11.9111 11.5781 11.5 9.99982 11.5C7.73212 11.5 6.42346 12.3487 5.60273 13.3429C4.80538 14.3087 4.39274 15.5112 4.18674 16.5H9.99982V18H3.99982C3.1714 18 2.51144 17.327 2.65692 16.5114C3.06973 14.1974 4.56727 10 9.99982 10Z" fill="#6C707E"/>
<path d="M16.4998 12.25C16.4998 11.8358 16.164 11.5 15.7498 11.5C15.3356 11.5 14.9998 11.8358 14.9998 12.25V15H12.2498C11.8356 15 11.4998 15.3358 11.4998 15.75C11.4998 16.1642 11.8356 16.5 12.2498 16.5H14.9998V19.25C14.9998 19.6642 15.3356 20 15.7498 20C16.164 20 16.4998 19.6642 16.4998 19.25V16.5H19.2498C19.664 16.5 19.9998 16.1642 19.9998 15.75C19.9998 15.3358 19.664 15 19.2498 15H16.4998V12.25Z" fill="#6C707E"/>
</svg>

<svg xmlns="http://www.w3.org/2000/svg" width="20" height="20" fill="none"><path fill="#6C707E" fill-rule="evenodd" d="M14 5a4 4 0 1 1-8 0 4 4 0 0 1 8 0m-1.5 0a2.5 2.5 0 1 1-5 0 2.5 2.5 0 0 1 5 0" clip-rule="evenodd"/><path fill="#6C707E" d="M10 10c1.418 0 2.567.286 3.5.75v1.746c-.808-.585-1.922-.996-3.5-.996-2.268 0-3.577.849-4.397 1.843-.798.966-1.21 2.168-1.416 3.157H10V18H4c-.829 0-1.489-.673-1.343-1.489C3.07 14.197 4.567 10 10 10"/><path fill="#6C707E" d="M16.5 12.25a.75.75 0 0 0-1.5 0V15h-2.75a.75.75 0 0 0 0 1.5H15v2.75a.75.75 0 0 0 1.5 0V16.5h2.75a.75.75 0 0 0 0-1.5H16.5z"/></svg>
